X: 39
T: Ad Dominum cum tribularer
N: Derived from Mar2001-Ad_Dominum_cum_tribularer.krn
C: Johannes Martini
%%abc-version 2.0
%%abcx-abcm2ps-target-version 5.9.1 (29 Sep 2008)
%%abc-creator hum2abc beta
%%abcx-conversion-date 2019/02/17 07:19:41
%%abc-edited-by Jesse Rodin
%%abc-edited-by Chris Gage 12-04-2013
%%abcx-initial-encoding-date 2014/10/05/
%%humdrum-veritas 1374148833
%%humdrum-veritas-data 3314061378
%%linebreak <none>
%%barnumbers 0
L: 1/4
M: 4/2
Q: 1/2=120
%%staves {1 2}
V: 1 clef=treble
V: 2 clef=treble-8
K: C
[V:1] A4A2G2 | 
[V:2] A4c2B2 | 
[V:1] E2F2G2A2- | 
[V:2] G2A2B2c2- | 
[V:1] A2F4E2 | 
[V:2] c2A2G4 | 
[V:1] F8 ||  
[V:2] F8 ||  
[V:1] F4G4 | 
[V:2] A4B4 | 
[V:1] A4A2A2 | 
[V:2] c4c2c2 | 
[V:1] A2A2A2A2 | 
[V:2] A2A2c2c2 | 
[V:1] A4A4 | 
[V:2] c4A4 | 
[V:1] G2A2B2c2- | 
[V:2] B2c2d2c2 | 
[V:1] c2A4^G2 | 
[V:2] A4B4 | 
[V:1] A4z4 | 
[V:2] A4z4 | 
[V:1] A4A2A2 | 
[V:2] c4c2c2 | 
[V:1] F2G3FF2- | 
[V:2] A2_B3AF2 | 
[V:1] F2E2F4 ||  
[V:2] G4F4 ||  
[V:1] A4A2A2 | 
[V:2] A4c2c2 | 
[V:1] A4A4 | 
[V:2] c4c4 | 
[V:1] A2A2A2G2 | 
[V:2] A4c2B2 | 
[V:1] A2_B4A2- | 
[V:2] c2d4c2 | 
[V:1] A2G2A4 | 
[V:2] _B4A4 | 
[V:1] z4A2A2 | 
[V:2] z4c2c2 | 
[V:1] G2F2G4 | 
[V:2] _B2A2_B4 | 
[V:1] A2F4E2 | 
[V:2] A4G4 | 
[V:1] F8 ||  
[V:2] F8 ||  
[V:1] A2A2A4 | 
[V:2] A2A2c4 | 
[V:1] A2A2A2A2 | 
[V:2] c2c2c2c2 | 
[V:1] A4A4 | 
[V:2] c4A4 | 
[V:1] z4A2A2 | 
[V:2] z4c2c2 | 
[V:1] A2A2A4 | 
[V:2] c2c2c4 | 
[V:1] F2G2A2G2- | 
[V:2] A2B2c4 | 
[V:1] G2F4E2 | 
[V:2] _B2A2G4 | 
[V:1] F8 ||  
[V:2] F8 ||  
[V:1] A4A2A2 | 
[V:2] A4c2c2 | 
[V:1] A2A2A2A2 | 
[V:2] c2c2c2c2 | 
[V:1] A4A2G2 | 
[V:2] c4c2B2 | 
[V:1] F2G2A2_B2- | 
[V:2] A2B2c2d2- | 
[V:1] B2A4G2 | 
[V:2] d2c2_B4 | 
[V:1] A4z4 | 
[V:2] A4z4 | 
[V:1] A2A2A4 | 
[V:2] c2c2c4 | 
[V:1] A4A4 | 
[V:2] c4A4 | 
[V:1] A2A2A2A2 | 
[V:2] c2c2c2c2 | 
[V:1] A2A2A4 | 
[V:2] c2c2c4 | 
[V:1] z4A2A2 | 
[V:2] z4c2c2 | 
[V:1] A2A2A2A2 | 
[V:2] c2c2c2c2 | 
[V:1] A4A2G2 | 
[V:2] c4c2_B2 | 
[V:1] F2G4F2- | 
[V:2] A2_B4A2 | 
[V:1] F2E2F4 ||  
[V:2] G4F4 ||  
[V:1] A4A2A2 | 
[V:2] A4c2c2 | 
[V:1] A2A2A2A2 | 
[V:2] c2c2c2c2 | 
[V:1] A4G4 | 
[V:2] c4B4 | 
[V:1] A2_B4A2- | 
[V:2] c2d4c2 | 
[V:1] A2G2A4 | 
[V:2] _B4A4 | 
[V:1] z4A4 | 
[V:2] z4c4 | 
[V:1] A2A2A2A2 | 
[V:2] c2c2c2c2 | 
[V:1] A4A2A2 | 
[V:2] c4c2c2 | 
[V:1] F2G2A2G2- | 
[V:2] A2B2c4 | 
[V:1] G2F4E2 | 
[V:2] _B2A2G4 | 
[V:1] F8 ||  
[V:2] F8 ||  
[V:1] A4A2A2 | 
[V:2] c4c2c2 | 
[V:1] A4A2_B2- | 
[V:2] c4c2d2- | 
[V:1] B2A4G2 | 
[V:2] d2c2_B4 | 
[V:1] A4z4 | 
[V:2] A4z4 | 
[V:1] A4A2A2 | 
[V:2] c4c2c2 | 
[V:1] A4G2E2 | 
[V:2] c4B2G2 | 
[V:1] F2G4F2- | 
[V:2] A2_B4A2 | 
[V:1] F2E2F4 ||  
[V:2] G4F4 ||  
[V:1] A2A2A2A2 | 
[V:2] A2A2c2c2 | 
[V:1] A2A2A2A2 | 
[V:2] c2c2c2c2 | 
[V:1] A4A4 | 
[V:2] c4c4 | 
[V:1] A2A2A4 | 
[V:2] c2c2c4 | 
[V:1] A4z4 | 
[V:2] A4z4 | 
[V:1] A2A2A2A2 | 
[V:2] c2c2c2c2 | 
[V:1] A4F2G2 | 
[V:2] c4A2B2 | 
[V:1] A2G3FF2- | 
[V:2] c4_B2A2 | 
[V:1] F2E2F4 |]  
[V:2] G4F4 |]  



